X: 29577
T: Noon Lassies, The
R: reel
M: 4/4
K: Gmajor
|:"G"G2BG AGBG|G2BG "D"GEDE|"G"G2BG AGAB|"Em"BAGE "D"ED D2:|
|:"G"dedB AGAB|dedB "D"BAAB|"G"dedB AGAB|"Em"BAGE "D"ED D2:|
|:"G"dgbg agbg|dgbg "D"agef|"G"g3e dedB|1 "Em"BAGE "D"ED D2:|2 "Em"BAGE "D"ED Dg||
"G"edBg edBg|edBA "Em"GEEg|"G"edBg edBA|"Em"GAGE EDDg|
"G"edBg edBg|edBA "Em"GEE2|"G"ed B/c/d efg2|GAGE "D"EDEF||

